packages/sources/icons/src/vitamix/mist-fill.svg

<svg width="16" height="16" viewBox="0 0 16 16" xmlns="http://www.w3.org/2000/svg"><path d="M2.66671 2.66663H5.33337V3.99996H2.66671V2.66663ZM10.6667 12.6666H13.3334V14H10.6667V12.6666ZM1.33337 5.99996H8.00004V7.33329H1.33337V5.99996ZM9.33337 5.99996H13.3334V7.33329H9.33337V5.99996ZM2.66671 9.33329H6.66671V10.6666H2.66671V9.33329ZM8.00004 9.33329H14.6667V10.6666H8.00004V9.33329ZM6.66671 2.66663H14.6667V3.99996H6.66671V2.66663ZM1.33337 12.6666H9.33337V14H1.33337V12.6666Z"/></svg>

<svg width="16" height="16" xmlns="http://www.w3.org/2000/svg"><path d="M2.667 2.667h2.666V4H2.667V2.667Zm8 10h2.666V14h-2.666v-1.333ZM1.333 6H8v1.333H1.333V6Zm8 0h4v1.333h-4V6ZM2.667 9.333h4v1.334h-4V9.333Zm5.333 0h6.667v1.334H8V9.333ZM6.667 2.667h8V4h-8V2.667Zm-5.334 10h8V14h-8v-1.333Z"/></svg>
